X: 607
P: Longways for as many as will
M: C|
L: 1/8
K: F
|:\
c4 c4 | c3 Bc | d2c2 B2A2 | G6 C |\
|:\
g4 g4 | g6 fg | a2g2 f2e2 | d6 G2 |\
c2 e4 d2 | e2 g4 f2 | e4 d4 | c8 |
c4 c4 | c6 Bc | d2c2 B2A2 | G6 C2 |\

